X: 130
T: Jia n ge Song of the bride setting out
L: 1/8
M: 2/4
K: C
E E G G [I:setbarnb 1]| 
G DE2 | 
C C D G | 
C/ C A,/G,2 | 
E E G G | 
G DE2 | 
C C D G | 
C/ C A,/G,2 | 
E E/ D/ E c | 
G3c | 
E E/ D/ E c | 
G4 | 
C> A, G,/ A,/ E | 
C4 |]

@@@ Tune index: 8798
